X: 04040
T: JANIE'S SCHOTTISCHE
C: Bob McQuillen 6 Oct 78
B: Bob's Note Book 04 #40
R: shottish
Z: 2020 John Chambers <jc:trillian.mit.edu>
M: C
L: 1/8
K: A
e>d \
| c2c>B A>EA>B | c>Ac>e f2e2 | d2d>c B>EB>c | d>ed>c B2e>d |
| c2c>B A>EA>B | c>Ac>e f2e2 | d2d>c B>AG>A | B2A>G A2 ||
|| c>d \
| e2a>f e>cA>c | e>ca>e f2e2 | e2a>f e>cA>c | e>ae>c B2c>d |
| e2a>f e>cA>c | e>ca>e f2e2 | d2f>d c2e>c | B>AA>G A2 |]
%%begintext align
%% With love to a great fiddler,
%% Janie McBride; (when my
%% little car busted, she gave
%% me a ride!)
%%endtext

%%sep 1 1 500

%%sep 1 1 500

